;-------------------------------Cut file parameters------------------------
; Input file name : no_closed_paths.svg
; File rotation : 0 File scale : 1
; Material name : Glass, Soda Lime
; Material thickness : 3 mm
; Cut path  : Centerline
; Cut quality : roughRate
; Raw Material width : 130.00mm
; Raw Material height : 100.00mm
;-------------------------------Do Not modify the Gcode file---------------
G90
G21
M1403
M1405 X0.00 Y-0.00
M1406 X130.00 Y-100.00
M1407 S3.0
M1410 1.5; Generated on Wam
M1411 Glass, Soda Lime
M1412 3 mm
G0 X0.00 Y-0.00
M3
M8
G4 S3.
G1 X0.00 Y-5.00 F222.08
G1 X0.00 Y-10.00
G1 X0.00 Y-15.00
G1 X0.00 Y-20.00
G1 X0.00 Y-25.00
G1 X0.00 Y-30.00
G1 X0.00 Y-35.00
G1 X0.00 Y-40.00
G1 X0.00 Y-45.00
G1 X0.00 Y-50.00
G1 X0.00 Y-55.00
G1 X0.00 Y-60.00
G1 X0.00 Y-65.00
G1 X0.00 Y-70.00
G1 X0.00 Y-75.00
G1 X0.00 Y-80.00
G1 X0.00 Y-85.00
G1 X0.00 Y-90.00
G1 X0.00 Y-95.00
G1 X0.00 Y-100.00 F155.46
G1 X5.00 Y-100.00
G1 X10.00 Y-100.00 F222.08
G1 X15.00 Y-100.00
G1 X15.00 Y-100.00 F155.46
G1 X20.00 Y-100.00 F222.08
G1 X25.00 Y-100.00
G1 X30.00 Y-100.00 F155.46
G1 X30.00 Y-100.00
G1 X30.00 Y-95.00
G1 X30.00 Y-90.00
G1 X30.00 Y-85.00 F222.08
G1 X30.00 Y-80.00
G1 X30.00 Y-75.00
G1 X30.00 Y-70.00
G1 X30.00 Y-65.00
G1 X30.00 Y-60.00
G1 X30.00 Y-55.00
G1 X30.00 Y-50.00
G1 X30.00 Y-50.00 F155.46
G1 X30.00 Y-45.00 F222.08
G1 X30.00 Y-40.00
G1 X30.00 Y-35.00
G1 X30.00 Y-30.00
G1 X30.00 Y-25.00
G1 X30.00 Y-20.00
G1 X30.00 Y-15.00
G1 X30.00 Y-10.00
G1 X30.00 Y-5.00
G1 X30.00 Y-0.00 F155.46
G1 X30.00 Y-0.00
G1 X25.00 Y-0.00
G1 X20.00 Y-0.00
G1 X15.04 Y-0.00 F222.08
G1 X10.04 Y-0.00
G1 X5.04 Y-0.00 F111.04
G1 X0.09 Y-0.00
G1 X0.09 Y-0.00
G4 S1.
M9
G4 S1.
M5
G4 S1.
G0 X112.00 Y-49.00
M3
M8
G4 S3.
G1 X112.00 Y-54.00 F222.08
G1 X112.00 Y-57.63
G1 X112.00 Y-62.63 F111.04
G1 X112.00 Y-66.27
G1 X112.00 Y-66.27
G4 S1.
M9
G4 S1.
M5
G4 S1.
G0 X107.00 Y-50.00
M3
M8
G4 S3.
G1 X107.00 Y-55.00 F222.08
G1 X107.00 Y-58.79
G1 X107.00 Y-63.79
G1 X107.00 Y-67.59 F155.46
G1 X108.00 Y-67.59
G1 X109.00 Y-67.59
G1 X109.00 Y-62.59
G1 X109.00 Y-58.79
G1 X109.00 Y-53.79 F222.08
G1 X109.00 Y-50.00 F155.46
G1 X108.05 Y-50.00 F111.04
G1 X107.10 Y-50.00
G1 X107.10 Y-50.00
G4 S1.
M9
G4 S1.
M5
G4 S1.
G0 X105.00 Y-43.00
M3
M8
G4 S3.
G1 X110.00 Y-43.00 F222.08
G1 X110.50 Y-43.00 F111.04
G1 X115.50 Y-43.00
G1 X116.00 Y-43.00
G1 X116.00 Y-43.00
G4 S1.
M9
G4 S1.
M5
G4 S1.
G0 X75.00 Y-50.00
M3
M8
G4 S3.
G1 X75.00 Y-45.00 F222.08
G1 X75.00 Y-40.00 F155.46
G1 X80.00 Y-40.00
G1 X80.00 Y-40.00 F111.04
G1 X85.00 Y-40.00 F155.46
G1 X85.00 Y-40.00 F111.04
G1 X85.00 Y-45.00
G1 X85.00 Y-50.00
G1 X85.00 Y-50.00
G4 S1.
M9
G4 S1.
M5
G4 S1.
G0 X100.00 Y-20.00
M3
M8
G4 S3.
G1 X100.00 Y-15.00 F222.08
G1 X100.00 Y-10.00 F155.46
G1 X105.00 Y-10.00
G1 X110.00 Y-10.00
G1 X110.00 Y-15.00
G1 X110.00 Y-20.00
G1 X105.05 Y-20.00 F111.04
G1 X100.10 Y-20.00
G1 X100.10 Y-20.00
G4 S1.
M9
G4 S1.
M5
G4 S1.
G0 X105.10 Y-46.00
M3
M8
G4 S3.
G1 X109.55 Y-46.00 F222.08
G1 X114.00 Y-46.00 F155.46
G1 X114.00 Y-51.00
G1 X114.00 Y-56.00 F222.08
G1 X114.00 Y-61.00
G1 X114.00 Y-61.41 F155.46
G1 X114.00 Y-66.41 F222.08
G1 X114.00 Y-71.41
G1 X114.00 Y-76.41 F155.46
G1 X114.00 Y-76.83
G1 X109.50 Y-76.83
G1 X105.00 Y-76.83
G1 X105.00 Y-71.83 F222.08
G1 X105.00 Y-66.83
G1 X105.00 Y-61.83
G1 X105.00 Y-61.41 F111.04
G1 X105.00 Y-56.41 F222.08
G1 X105.00 Y-51.41
G1 X105.00 Y-46.41 F111.04
G1 X105.00 Y-46.00
G1 X105.00 Y-46.00
G4 S1.
M9
G4 S1.
M5
G4 S1.
G0 X100.00 Y-40.00
M3
M8
G4 S3.
G1 X100.00 Y-45.00 F222.08
G1 X100.00 Y-50.00
G1 X100.00 Y-55.00
G1 X100.00 Y-60.00
G1 X100.00 Y-65.00
G1 X100.00 Y-70.00
G1 X100.00 Y-75.00
G1 X100.00 Y-80.00
G1 X100.00 Y-85.00
G1 X100.00 Y-90.00
G1 X100.00 Y-95.00
G1 X100.00 Y-100.00 F155.46
G1 X105.00 Y-100.00
G1 X110.00 Y-100.00 F222.08
G1 X115.00 Y-100.00
G1 X120.00 Y-100.00 F155.46
G1 X120.00 Y-95.00
G1 X120.00 Y-90.00 F222.08
G1 X120.00 Y-85.00
G1 X120.00 Y-80.00
G1 X120.00 Y-75.00
G1 X120.00 Y-70.00
G1 X120.00 Y-70.00 F155.46
G1 X120.00 Y-65.00 F222.08
G1 X120.00 Y-60.00
G1 X120.00 Y-55.00
G1 X120.00 Y-50.00
G1 X120.00 Y-45.00
G1 X120.00 Y-40.00 F155.46
G1 X120.00 Y-40.00 F111.04
G1 X115.00 Y-40.00 F155.46
G1 X110.05 Y-40.00
G1 X105.05 Y-40.00 F111.04
G1 X100.10 Y-40.00
G1 X100.10 Y-40.00
G4 S1.
M9
G4 S1.
M5
G4 S1.
G0 X90.00 Y-30.00
M3
M8
G4 S3.
G1 X90.00 Y-35.00 F222.08
G1 X90.00 Y-40.00
G1 X90.00 Y-45.00
G1 X90.00 Y-50.00
G1 X90.00 Y-55.00
G1 X90.00 Y-55.00 F155.46
G1 X90.00 Y-60.00 F222.08
G1 X90.00 Y-65.00
G1 X90.00 Y-70.00
G1 X90.00 Y-75.00
G1 X90.00 Y-80.00 F155.46
G1 X85.00 Y-80.00
G1 X80.00 Y-80.00
G1 X75.00 Y-80.00 F222.08
G1 X70.00 Y-80.00 F155.46
G1 X70.00 Y-75.00
G1 X70.00 Y-70.00 F222.08
G1 X70.00 Y-65.00
G1 X70.00 Y-60.00
G1 X70.00 Y-55.00
G1 X70.00 Y-50.00
G1 X70.00 Y-45.00
G1 X70.00 Y-40.00
G1 X70.00 Y-35.00
G1 X70.00 Y-30.00 F155.46
G1 X70.00 Y-30.00
G1 X72.77 Y-25.84
G1 X75.55 Y-21.68
G1 X78.32 Y-17.52 F222.08
G1 X80.00 Y-15.00
G1 X82.77 Y-10.84
G1 X85.55 Y-6.68
G1 X88.32 Y-2.52
G1 X90.00 Y-0.00 F155.46
G1 X95.00 Y-0.00
G1 X100.00 Y-0.00 F222.08
G1 X105.00 Y-0.00
G1 X105.00 Y-0.00 F155.46
G1 X110.00 Y-0.00 F222.08
G1 X115.00 Y-0.00
G1 X120.00 Y-0.00 F155.46
G1 X120.00 Y-0.00
G1 X121.58 Y-4.74
G1 X123.16 Y-9.49
G1 X124.74 Y-14.23 F222.08
G1 X125.00 Y-15.00 F155.46
G1 X126.58 Y-19.74 F222.08
G1 X128.16 Y-24.49
G1 X129.74 Y-29.23 F155.46
G1 X130.00 Y-30.00
G1 X125.00 Y-30.00
G1 X120.00 Y-30.00
G1 X115.00 Y-30.00 F222.08
G1 X110.05 Y-30.00
G1 X105.05 Y-30.00
G1 X100.05 Y-30.00
G1 X95.05 Y-30.00 F111.04
G1 X90.10 Y-30.00
G1 X90.10 Y-30.00
G4 S1.
M9
G4 S1.
M5
G4 S1.
G0 X20.00 Y-100.00
M3
M8
G4 S3.
G1 X20.00 Y-95.00 F222.08
G1 X20.00 Y-90.00
G1 X20.00 Y-85.00
G1 X20.00 Y-80.00
G1 X20.00 Y-75.00
G1 X20.00 Y-70.00
G1 X20.00 Y-65.00
G1 X20.00 Y-60.00
G1 X20.00 Y-55.00
G1 X20.00 Y-50.06
G1 X20.00 Y-45.06
G1 X20.00 Y-40.06
G1 X20.00 Y-35.06
G1 X20.00 Y-30.06
G1 X20.00 Y-25.06
G1 X20.00 Y-20.06
G1 X20.00 Y-15.06
G1 X20.00 Y-10.06
G1 X20.00 Y-5.06 F111.04
G1 X20.00 Y-0.13
G1 X20.00 Y-0.13
G4 S1.
M9
G4 S1.
M5
G4 S1.
G0 X10.00 Y-100.00
M3
M8
G4 S3.
G1 X10.00 Y-95.00 F222.08
G1 X10.00 Y-90.00
G1 X10.00 Y-85.00
G1 X10.00 Y-80.00
G1 X10.00 Y-75.00
G1 X10.00 Y-70.00
G1 X10.00 Y-65.00
G1 X10.00 Y-60.00
G1 X10.00 Y-55.00
G1 X10.00 Y-50.06
G1 X10.00 Y-45.06
G1 X10.00 Y-40.06
G1 X10.00 Y-35.06
G1 X10.00 Y-30.06
G1 X10.00 Y-25.06
G1 X10.00 Y-20.06
G1 X10.00 Y-15.06
G1 X10.00 Y-10.06
G1 X10.00 Y-5.06 F111.04
G1 X10.00 Y-0.13
G1 X10.00 Y-0.13
G4 S1.
M9
G4 S1.
M5
G4 S1.
M1413 00:06:47
M1404
